X: 20785
T: Johnny Loves Molly
R: slip jig
M: 9/8
K: Dmajor
~f2f ged cAA|fef gec d2e|fef gec dfd|cAF ABc d2e:|
|:cAA BGA FDd|cAF ABc ded|cAA BGA FDd|cAF ABc d2e:|

